X: 9
T:Lyckovalsen (E. Frisell)
C:Filarfolket
M:3/4
L:1/8
K:G
G,A,|A,B, B,2 G,A,|A,B, B,D CC|A,2 A,2 CC|A,4 DE|\
FA dA GE|FA d2 dB|
G3G Ad|G2 G2:|\
|:Bd|g3g ec|Bd A2 AB|c2 cB AG|EG D2 Bd|\
g2 fd ec|
|1 BA ce AB|ce AB c2|A3A:|2 BA ce Be|\
ce Be ce|~B2 AG ED|G4|]
